src/svg/bedroom.svg

<svg width="21" height="20" viewBox="0 0 21 20" fill="none" xmlns="http://www.w3.org/2000/svg">
<g clip-path="url(#clip0_1_110)">
<path d="M20.1917 11.6273C20.1917 11.5364 20.1644 11.4485 20.1069 11.3758L16.9644 7.44549V3.52433C16.9644 3.07888 16.6038 2.71521 16.1553 2.71521L4.84327 2.71528C4.39782 2.71528 4.03416 3.07589 4.03416 3.52439V7.44856L0.891658 11.3759C0.834106 11.4486 0.806828 11.5395 0.806828 11.6274H0.803833V17.2819H2.01595L2.82507 16.4728H18.1766L18.9856 17.2849H20.1977V11.6274L20.1917 11.6273ZM11.1069 5.13949C11.1069 4.91528 11.2887 4.73643 11.51 4.73643L14.7433 4.73649C14.9675 4.73649 15.1464 4.91833 15.1464 5.13956V6.75473C15.1464 6.97894 14.9645 7.15779 14.7433 7.15779L11.51 7.15766C11.2857 7.15766 11.1069 6.97583 11.1069 6.7546V5.13949ZM5.85539 5.13949C5.85539 4.91528 6.03722 4.73643 6.25845 4.73643H9.49179C9.71601 4.73643 9.89486 4.91826 9.89486 5.13949V6.75466C9.89486 6.97888 9.71302 7.15773 9.49179 7.15773L6.25845 7.15766C6.03424 7.15766 5.85539 6.97583 5.85539 6.7546V5.13949ZM4.63417 7.99099H16.3645L18.9493 11.2243H2.04934L4.63417 7.99099Z" fill="#9499A8"/>
</g>
<defs>
<clipPath id="clip0_1_110">
<rect width="20" height="20" fill="white" transform="translate(0.5)"/>
</clipPath>
</defs>
</svg>

<svg width="21" height="20" fill="none" xmlns="http://www.w3.org/2000/svg">
  <g clip-path="url(#a)">
    <path d="M20.192 11.627a.4.4 0 0 0-.085-.251l-3.143-3.93V3.523c0-.445-.36-.809-.809-.809H4.843c-.445 0-.809.36-.809.81v3.924L.892 11.376a.406.406 0 0 0-.085.251H.804v5.655h1.212l.81-.81h15.35l.81.813h1.212v-5.658h-.006ZM11.107 5.14c0-.224.182-.403.403-.403h3.233c.224 0 .403.182.403.404v1.615a.403.403 0 0 1-.403.403H11.51a.403.403 0 0 1-.403-.403V5.139Zm-5.252 0c0-.224.182-.403.403-.403h3.234c.224 0 .403.182.403.403v1.616a.403.403 0 0 1-.403.403H6.258a.403.403 0 0 1-.403-.403V5.139Zm-1.22 2.852h11.73l2.584 3.233H2.05l2.585-3.233Z" fill="#9499A8"/>
  </g>
  <defs>
    <clipPath id="a">
      <path fill="#fff" d="M.5 0h20v20H.5z"/>
    </clipPath>
  </defs>
</svg>
